icons/ocaml/ocaml-original.svg

<?xml version="1.0" encoding="UTF-8"?>
<svg xmlns="http://www.w3.org/2000/svg" xmlns:xlink="http://www.w3.org/1999/xlink" width="128px" height="128px" viewBox="0 0 128 128" version="1.1">
<defs>
<linearGradient id="linear0" gradientUnits="userSpaceOnUse" x1="82.925" y1="97.718" x2="82.925" y2="97.9" gradientTransform="matrix(0.77317,0,0,0.77317,0,8.224478)">
<stop offset="0" style="stop-color:rgb(94.901961%,56.862745%,0%);stop-opacity:1;"/>
<stop offset="1" style="stop-color:rgb(92.54902%,40.392157%,5.882353%);stop-opacity:1;"/>
</linearGradient>
<linearGradient id="linear1" gradientUnits="userSpaceOnUse" x1="61.276" y1="98.981" x2="61.276" y2="144.277" gradientTransform="matrix(0.77317,0,0,0.77317,0,8.224478)">
<stop offset="0" style="stop-color:rgb(94.901961%,56.862745%,0%);stop-opacity:1;"/>
<stop offset="1" style="stop-color:rgb(92.54902%,40.392157%,5.882353%);stop-opacity:1;"/>
</linearGradient>
<linearGradient id="linear2" gradientUnits="userSpaceOnUse" x1="82.781" y1="0" x2="82.781" y2="144.245" gradientTransform="matrix(0.77317,0,0,0.77317,0,8.224478)">
<stop offset="0" style="stop-color:rgb(94.901961%,56.862745%,0%);stop-opacity:1;"/>
<stop offset="1" style="stop-color:rgb(92.54902%,40.392157%,5.882353%);stop-opacity:1;"/>
</linearGradient>
<linearGradient id="linear3" gradientUnits="userSpaceOnUse" x1="22.871" y1="92.114" x2="22.871" y2="143.249" gradientTransform="matrix(0.77317,0,0,0.77317,0,8.224478)">
<stop offset="0" style="stop-color:rgb(94.901961%,56.862745%,0%);stop-opacity:1;"/>
<stop offset="1" style="stop-color:rgb(92.54902%,40.392157%,5.882353%);stop-opacity:1;"/>
</linearGradient>
</defs>
<g id="surface1">
<path style=" stroke:none;fill-rule:nonzero;fill:rgb(100%,100%,100%);fill-opacity:1;" d="M 66.558594 106.417969 C 66.394531 105.316406 66.710938 104.222656 66.378906 103.1875 C 66.09375 102.285156 65.445312 102.203125 65.015625 101.472656 C 63.890625 99.546875 62.726562 97.054688 62.617188 94.703125 C 62.519531 92.589844 61.742188 90.675781 61.636719 88.582031 C 61.585938 87.570312 61.703125 86.527344 61.667969 85.527344 C 61.648438 85.039062 61.621094 84.617188 61.523438 84.089844 L 61.371094 83.203125 L 61.636719 82.546875 C 61.519531 82.324219 63.878906 82.398438 64.582031 82.402344 L 68.09375 82.535156 C 70.527344 82.65625 72.746094 82.625 75.113281 82.261719 C 80.398438 81.445312 82.824219 79.289062 84.066406 78.390625 C 88.917969 74.894531 91.140625 69.175781 91.140625 69.175781 C 91.941406 67.398438 91.9375 64.207031 93.652344 62.777344 C 95.675781 61.09375 99.070312 61.214844 101.390625 60.179688 C 102.75 59.578125 103.726562 59.25 105.117188 59.535156 C 106.144531 59.75 108 60.941406 108.425781 59.269531 C 108.082031 59.046875 107.945312 58.640625 107.761719 58.417969 C 109.675781 58.226562 107.796875 53.789062 107.042969 52.902344 C 105.871094 51.53125 103.921875 50.90625 101.847656 50.355469 C 99.382812 49.703125 97.144531 48.949219 94.824219 49.402344 C 90.769531 50.199219 91.074219 47.878906 88.683594 47.878906 C 85.820312 47.878906 80.71875 48.019531 79.835938 50.804688 C 79.429688 52.105469 79.003906 52.160156 78.292969 53.160156 C 77.683594 54.015625 78.398438 54.769531 78.09375 55.746094 C 77.777344 56.746094 77.316406 60.277344 76.832031 61.511719 C 76.015625 63.597656 75.039062 66.203125 73.242188 66.203125 C 70.722656 66.511719 68.738281 66.597656 66.691406 65.855469 C 65.460938 65.410156 63.398438 64.710938 62.378906 64.28125 C 57.671875 62.296875 56.898438 60.128906 56.898438 60.128906 C 56.394531 59.296875 55.0625 57.949219 54.566406 56.191406 C 54.015625 54.257812 53.09375 52.644531 52.71875 51.640625 C 52.332031 50.59375 51.40625 48.933594 50.679688 47.117188 C 49.746094 44.808594 48.4375 43.082031 47.476562 42.226562 C 46.011719 40.910156 44.660156 38.894531 41.683594 39.484375 C 41.152344 39.589844 39.21875 39.675781 37.734375 40.917969 C 36.730469 41.769531 36.414062 43.5 35.484375 44.964844 C 34.949219 45.8125 34.003906 48.246094 33.136719 50.273438 C 32.535156 51.679688 32.253906 52.730469 31.605469 53.25 C 31.097656 53.65625 30.46875 54.175781 29.707031 53.890625 C 29.234375 53.714844 28.730469 53.414062 28.21875 53.015625 C 27.523438 52.480469 25.96875 49.816406 25.007812 47.851562 C 24.171875 46.148438 22.394531 43.597656 21.367188 42.21875 C 19.886719 40.234375 19.019531 39.730469 16.832031 39.730469 C 12.144531 39.730469 11.789062 42.355469 9.722656 46.175781 C 8.816406 47.851562 8.488281 50.515625 6.667969 52.601562 C 5.628906 53.796875 2.308594 58.703125 0.00390625 59.539062 L 0.00390625 59.515625 L -0.00390625 59.539062 L 0.00390625 94.359375 C 0.152344 93.894531 0.3125 93.464844 0.492188 93.074219 C 1.382812 91.171875 3.453125 89.410156 4.605469 87.457031 C 5.230469 86.394531 5.941406 85.351562 6.359375 84.234375 C 6.714844 83.273438 6.890625 81.835938 7.40625 81.003906 C 8.035156 79.980469 9.023438 79.632812 10.039062 79.46875 C 11.625 79.203125 12.976562 81.75 15.007812 82.6875 C 15.875 83.085938 19.863281 84.5 21.0625 84.789062 C 23.035156 85.253906 25.222656 85.65625 27.226562 86.058594 C 28.296875 86.273438 29.324219 86.402344 30.425781 86.511719 C 31.417969 86.613281 35.128906 86.734375 35.355469 87.003906 C 33.46875 87.964844 32.363281 90.664062 31.65625 92.574219 C 30.917969 94.566406 30.40625 96.78125 29.511719 98.730469 C 28.523438 100.882812 26.449219 101.777344 26.699219 104.285156 C 26.792969 105.285156 26.976562 106.332031 26.808594 107.433594 C 26.628906 108.59375 26.160156 109.5 25.820312 110.632812 C 25.382812 112.113281 24.863281 116.898438 24.1875 118.300781 L 28.320312 117.78125 C 28.769531 116.710938 29.1875 112.1875 29.332031 111.757812 C 30.105469 109.488281 31.128906 107.621094 32.703125 105.867188 C 34.238281 104.160156 34.160156 101.957031 35.058594 99.960938 C 36.027344 97.796875 37.335938 96.066406 38.566406 94.03125 C 40.792969 90.351562 42.261719 85.707031 47 84.761719 C 47.503906 84.65625 50.40625 86.75 51.691406 87.992188 C 53.164062 89.40625 54.773438 91.046875 55.742188 93 C 57.617188 96.789062 59.207031 102.269531 59.808594 105.296875 C 60.152344 107.03125 60.429688 107.136719 61.601562 108.511719 C 62.144531 109.140625 63.222656 111.109375 63.578125 111.867188 C 63.949219 112.675781 64.515625 114.511719 64.96875 115.449219 C 65.234375 116.007812 65.925781 117.722656 66.425781 119.203125 L 70.28125 119.082031 C 70.296875 119.117188 70.367188 119.074219 70.382812 119.105469 C 70.371094 119.074219 70.355469 119.039062 70.34375 119.007812 C 68.421875 115.152344 67.191406 110.691406 66.558594 106.421875 Z M 66.558594 106.417969 "/>
<path style=" stroke:none;fill-rule:nonzero;fill:rgb(28.235294%,26.666667%,26.666667%);fill-opacity:1;" d="M 64.109375 83.917969 L 64.128906 83.871094 C 64.101562 83.753906 64.09375 83.722656 64.109375 83.917969 Z M 64.109375 83.917969 "/>
<path style=" stroke:none;fill-rule:nonzero;fill:url(#linear0);" d="M 64.109375 83.917969 L 64.128906 83.871094 C 64.101562 83.753906 64.09375 83.722656 64.109375 83.917969 Z M 64.109375 83.917969 "/>
<path style=" stroke:none;fill-rule:nonzero;fill:url(#linear1);" d="M 64.96875 115.441406 C 64.519531 114.503906 63.953125 112.667969 63.578125 111.859375 C 63.222656 111.105469 62.144531 109.136719 61.605469 108.503906 C 60.429688 107.128906 60.152344 107.027344 59.808594 105.289062 C 59.207031 102.265625 57.617188 96.78125 55.742188 92.996094 C 54.773438 91.042969 53.164062 89.402344 51.691406 87.984375 C 50.40625 86.742188 47.507812 84.652344 47 84.757812 C 42.265625 85.703125 40.796875 90.347656 38.566406 94.027344 C 37.335938 96.0625 36.03125 97.792969 35.058594 99.957031 C 34.160156 101.949219 34.242188 104.152344 32.707031 105.859375 C 31.128906 107.617188 30.105469 109.484375 29.335938 111.75 C 29.1875 112.179688 28.773438 116.703125 28.320312 117.777344 L 35.359375 117.28125 C 41.917969 117.730469 40.023438 120.246094 50.261719 119.695312 L 66.425781 119.195312 C 65.921875 117.714844 65.230469 116 64.964844 115.441406 Z M 64.96875 115.441406 "/>
<path style=" stroke:none;fill-rule:nonzero;fill:url(#linear2);" d="M 111.875 8.222656 L 16.132812 8.222656 C 7.226562 8.226562 0.0078125 15.445312 0.0078125 24.351562 L 0.0078125 59.535156 C 2.316406 58.699219 5.632812 53.792969 6.671875 52.597656 C 8.492188 50.511719 8.820312 47.847656 9.726562 46.171875 C 11.792969 42.351562 12.148438 39.726562 16.835938 39.726562 C 19.023438 39.726562 19.890625 40.230469 21.371094 42.214844 C 22.398438 43.59375 24.179688 46.144531 25.007812 47.847656 C 25.96875 49.816406 27.535156 52.476562 28.222656 53.011719 C 28.734375 53.414062 29.238281 53.710938 29.710938 53.886719 C 30.46875 54.175781 31.101562 53.652344 31.609375 53.246094 C 32.257812 52.726562 32.539062 51.675781 33.140625 50.269531 C 34.007812 48.242188 34.949219 45.8125 35.488281 44.960938 C 36.417969 43.496094 36.734375 41.757812 37.738281 40.914062 C 39.222656 39.671875 41.152344 39.585938 41.6875 39.480469 C 44.664062 38.890625 46.015625 40.914062 47.480469 42.222656 C 48.441406 43.078125 49.75 44.804688 50.683594 47.113281 C 51.410156 48.921875 52.335938 50.59375 52.722656 51.636719 C 53.097656 52.640625 54.023438 54.257812 54.570312 56.1875 C 55.066406 57.945312 56.398438 59.292969 56.902344 60.125 C 56.902344 60.125 57.675781 62.292969 62.382812 64.277344 C 63.402344 64.707031 65.464844 65.40625 66.695312 65.851562 C 68.742188 66.597656 70.722656 66.5 73.246094 66.199219 C 75.042969 66.199219 76.019531 63.59375 76.835938 61.507812 C 77.320312 60.277344 77.78125 56.742188 78.097656 55.742188 C 78.402344 54.765625 77.6875 54.011719 78.296875 53.15625 C 79.007812 52.15625 79.429688 52.101562 79.839844 50.800781 C 80.722656 48.015625 85.824219 47.875 88.6875 47.875 C 91.085938 47.875 90.773438 50.195312 94.828125 49.402344 C 97.148438 48.945312 99.386719 49.699219 101.851562 50.351562 C 103.925781 50.902344 105.875 51.527344 107.046875 52.898438 C 107.804688 53.785156 109.679688 58.222656 107.765625 58.414062 C 107.949219 58.636719 108.085938 59.042969 108.429688 59.265625 C 108.003906 60.941406 106.148438 59.746094 105.121094 59.53125 C 103.730469 59.246094 102.753906 59.574219 101.394531 60.175781 C 99.074219 61.210938 95.679688 61.089844 93.65625 62.773438 C 91.941406 64.203125 91.945312 67.386719 91.144531 69.171875 C 91.144531 69.171875 88.921875 74.890625 84.070312 78.386719 C 82.828125 79.285156 80.402344 81.441406 75.117188 82.257812 C 72.75 82.625 70.53125 82.652344 68.097656 82.53125 L 64.585938 82.398438 C 63.890625 82.394531 61.523438 82.316406 61.640625 82.542969 L 61.375 83.199219 C 61.417969 83.417969 61.503906 83.953125 61.527344 84.085938 C 61.625 84.613281 61.652344 85.035156 61.671875 85.523438 C 61.707031 86.523438 61.589844 87.566406 61.640625 88.578125 C 61.746094 90.671875 62.523438 92.585938 62.621094 94.699219 C 62.730469 97.054688 63.894531 99.542969 65.019531 101.46875 C 65.449219 102.199219 66.097656 102.28125 66.382812 103.183594 C 66.714844 104.214844 66.402344 105.3125 66.5625 106.414062 C 67.195312 110.679688 68.417969 115.144531 70.347656 118.996094 C 70.359375 119.027344 70.375 119.0625 70.390625 119.089844 C 72.765625 118.695312 75.144531 117.839844 78.230469 117.382812 C 83.882812 116.546875 91.75 116.976562 96.800781 116.503906 C 109.582031 115.304688 116.519531 121.746094 128.003906 119.105469 L 128.003906 24.351562 C 128 15.445312 120.78125 8.222656 111.875 8.222656 Z M 64.109375 83.917969 C 64.09375 83.722656 64.101562 83.75 64.128906 83.871094 Z M 64.109375 83.917969 "/>
<path style=" stroke:none;fill-rule:nonzero;fill:url(#linear3);" d="M 29.515625 98.726562 C 30.40625 96.78125 30.921875 94.5625 31.660156 92.570312 C 32.371094 90.664062 33.476562 87.960938 35.359375 87 C 35.132812 86.730469 31.421875 86.609375 30.429688 86.507812 L 27.230469 86.054688 L 21.066406 84.785156 C 19.867188 84.496094 15.878906 83.082031 15.011719 82.683594 C 12.980469 81.746094 11.628906 79.203125 10.042969 79.464844 C 9.027344 79.628906 8.03125 79.976562 7.410156 81 C 6.894531 81.835938 6.71875 83.269531 6.363281 84.230469 C 5.949219 85.347656 5.234375 86.390625 4.609375 87.453125 C 3.457031 89.402344 1.386719 91.167969 0.496094 93.070312 C 0.316406 93.460938 0.15625 93.898438 0.0078125 94.355469 L 0.0078125 116.089844 L 3.355469 116.8125 C 12.347656 119.214844 14.542969 119.417969 23.363281 118.40625 L 24.191406 118.296875 C 24.863281 116.890625 25.386719 112.109375 25.824219 110.628906 C 26.164062 109.492188 26.632812 108.589844 26.8125 107.429688 C 26.980469 106.328125 26.796875 105.28125 26.699219 104.277344 C 26.457031 101.773438 28.527344 100.878906 29.519531 98.726562 Z M 29.515625 98.726562 "/>
</g>
</svg>

<svg xmlns="http://www.w3.org/2000/svg" viewBox="0 0 128 128"><defs><linearGradient id="a" gradientUnits="userSpaceOnUse" x1="82.925" y1="97.718" x2="82.925" y2="97.9" gradientTransform="translate(0 8.224) scale(.77317)"><stop offset="0" stop-color="#F29100"/><stop offset="1" stop-color="#EC670F"/></linearGradient><linearGradient id="b" gradientUnits="userSpaceOnUse" x1="61.276" y1="98.981" x2="61.276" y2="144.277" gradientTransform="translate(0 8.224) scale(.77317)"><stop offset="0" stop-color="#F29100"/><stop offset="1" stop-color="#EC670F"/></linearGradient><linearGradient id="c" gradientUnits="userSpaceOnUse" x1="82.781" y1="0" x2="82.781" y2="144.245" gradientTransform="translate(0 8.224) scale(.77317)"><stop offset="0" stop-color="#F29100"/><stop offset="1" stop-color="#EC670F"/></linearGradient><linearGradient id="d" gradientUnits="userSpaceOnUse" x1="22.871" y1="92.114" x2="22.871" y2="143.249" gradientTransform="translate(0 8.224) scale(.77317)"><stop offset="0" stop-color="#F29100"/><stop offset="1" stop-color="#EC670F"/></linearGradient></defs><path d="M66.559 106.418c-.164-1.102.152-2.195-.18-3.23-.285-.903-.934-.985-1.363-1.715-1.125-1.926-2.29-4.418-2.399-6.77-.097-2.113-.875-4.027-.98-6.121-.051-1.012.066-2.055.031-3.055a9.433 9.433 0 00-.145-1.437l-.152-.887.266-.656c-.117-.223 2.242-.149 2.945-.145l3.512.133c2.433.121 4.652.09 7.02-.273 5.284-.817 7.71-2.973 8.952-3.871 4.852-3.496 7.075-9.215 7.075-9.215.8-1.778.796-4.969 2.511-6.399 2.024-1.683 5.418-1.562 7.739-2.597 1.359-.602 2.336-.93 3.726-.645 1.028.215 2.883 1.406 3.309-.265-.344-.223-.48-.63-.664-.852 1.914-.191.035-4.629-.719-5.516-1.172-1.37-3.121-1.996-5.195-2.547-2.465-.652-4.703-1.406-7.024-.953-4.054.797-3.75-1.523-6.14-1.523-2.864 0-7.965.14-8.848 2.926-.406 1.3-.832 1.355-1.543 2.355-.61.856.105 1.61-.2 2.586-.316 1-.777 4.531-1.261 5.766-.816 2.086-1.793 4.691-3.59 4.691-2.52.309-4.504.395-6.55-.348-1.231-.445-3.294-1.144-4.313-1.574-4.707-1.984-5.48-4.152-5.48-4.152-.504-.832-1.837-2.18-2.333-3.938-.55-1.933-1.472-3.546-1.847-4.55-.387-1.047-1.313-2.707-2.04-4.524-.933-2.308-2.242-4.035-3.202-4.89-1.465-1.317-2.817-3.332-5.793-2.743-.532.106-2.465.192-3.95 1.434-1.004.852-1.32 2.582-2.25 4.047-.535.847-1.48 3.281-2.347 5.308-.602 1.407-.883 2.457-1.532 2.977-.507.406-1.136.926-1.898.64-.473-.175-.977-.476-1.488-.874-.696-.536-2.25-3.2-3.211-5.164-.836-1.704-2.613-4.254-3.64-5.633-1.481-1.985-2.348-2.489-4.536-2.489-4.687 0-5.043 2.625-7.11 6.446-.906 1.676-1.234 4.34-3.054 6.426-1.04 1.195-4.36 6.101-6.664 6.937v-.023l-.008.023.008 34.82c.148-.464.308-.894.488-1.285.89-1.902 2.961-3.664 4.113-5.617.625-1.062 1.336-2.105 1.754-3.223.356-.96.532-2.398 1.047-3.23.63-1.024 1.617-1.371 2.633-1.535 1.586-.266 2.938 2.281 4.969 3.219.867.398 4.855 1.812 6.055 2.101 1.972.465 4.16.867 6.164 1.27 1.07.214 2.097.343 3.199.453.992.101 4.703.222 4.93.492-1.887.96-2.993 3.66-3.7 5.57-.738 1.992-1.25 4.207-2.144 6.156-.989 2.153-3.063 3.047-2.813 5.555.094 1 .278 2.047.11 3.149-.18 1.16-.649 2.066-.989 3.199-.437 1.48-.957 6.265-1.633 7.668l4.133-.52c.45-1.07.867-5.594 1.012-6.023.773-2.27 1.797-4.137 3.371-5.89 1.535-1.708 1.457-3.911 2.356-5.907.968-2.164 2.277-3.895 3.507-5.93 2.227-3.68 3.696-8.324 8.434-9.27.504-.105 3.406 1.989 4.691 3.231 1.473 1.414 3.082 3.055 4.051 5.008 1.875 3.79 3.465 9.27 4.067 12.297.343 1.734.62 1.84 1.793 3.215.543.629 1.62 2.597 1.976 3.355.371.809.938 2.645 1.39 3.582.266.559.958 2.274 1.458 3.754l3.855-.121c.016.035.086-.008.102.023l-.04-.097c-1.921-3.856-3.152-8.317-3.784-12.586zm0 0" fill="#FFF"/><path d="M64.11 83.918l.019-.047c-.027-.117-.035-.148-.02.047zm0 0" fill="#484444"/><path d="M64.11 83.918l.019-.047c-.027-.117-.035-.148-.02.047zm0 0" fill="url(#a)"/><path d="M64.969 115.441c-.45-.937-1.016-2.773-1.39-3.582-.356-.754-1.434-2.722-1.974-3.355-1.175-1.375-1.453-1.477-1.796-3.215-.602-3.023-2.192-8.508-4.067-12.293-.969-1.953-2.578-3.594-4.05-5.012-1.286-1.242-4.184-3.332-4.692-3.226-4.734.945-6.203 5.59-8.434 9.27-1.23 2.034-2.535 3.765-3.507 5.929-.899 1.992-.817 4.195-2.352 5.902-1.578 1.758-2.602 3.625-3.371 5.891-.148.43-.563 4.953-1.016 6.027l7.04-.496c6.558.45 4.663 2.965 14.902 2.414l16.164-.5c-.504-1.48-1.196-3.195-1.461-3.754zm0 0" fill="url(#b)"/><path d="M111.875 8.223H16.133C7.227 8.227.008 15.445.008 24.352v35.183c2.308-.836 5.625-5.742 6.664-6.937 1.82-2.086 2.148-4.75 3.055-6.426 2.066-3.82 2.421-6.445 7.109-6.445 2.187 0 3.055.503 4.535 2.488 1.027 1.379 2.809 3.93 3.637 5.633.96 1.968 2.527 4.629 3.215 5.164.511.402 1.015.699 1.488.875.758.289 1.39-.235 1.898-.64.649-.52.93-1.571 1.532-2.977.867-2.028 1.808-4.458 2.347-5.31.93-1.464 1.246-3.202 2.25-4.046 1.485-1.242 3.414-1.328 3.95-1.434 2.976-.59 4.328 1.434 5.792 2.743.961.855 2.27 2.582 3.204 4.89.726 1.809 1.652 3.48 2.039 4.524.375 1.004 1.3 2.62 1.847 4.55.496 1.758 1.828 3.106 2.332 3.938 0 0 .774 2.168 5.48 4.152 1.02.43 3.083 1.13 4.313 1.575 2.047.746 4.028.648 6.551.347 1.797 0 2.774-2.605 3.59-4.691.484-1.23.945-4.766 1.262-5.766.304-.976-.41-1.73.199-2.586.71-1 1.133-1.054 1.543-2.355.883-2.785 5.984-2.926 8.847-2.926 2.399 0 2.086 2.32 6.141 1.527 2.32-.457 4.559.297 7.024.95 2.074.55 4.023 1.175 5.195 2.546.758.887 2.633 5.325.719 5.516.183.223.32.629.664.852-.426 1.675-2.282.48-3.309.265-1.39-.285-2.367.043-3.726.645-2.32 1.035-5.715.914-7.739 2.597-1.715 1.43-1.71 4.614-2.511 6.399 0 0-2.223 5.719-7.075 9.215-1.242.898-3.668 3.054-8.953 3.87-2.367.368-4.586.395-7.02.274l-3.511-.133c-.695-.003-3.063-.082-2.945.145l-.266.656c.043.219.129.754.152.887.098.527.125.95.145 1.437.035 1-.082 2.043-.031 3.055.105 2.094.882 4.008.98 6.121.11 2.356 1.274 4.844 2.399 6.77.43.73 1.078.812 1.363 1.715.332 1.03.02 2.129.18 3.23.632 4.266 1.855 8.73 3.785 12.582a.685.685 0 00.043.094c2.375-.395 4.754-1.25 7.84-1.707 5.652-.836 13.519-.406 18.57-.88 12.781-1.198 19.719 5.243 31.203 2.602V24.352c-.004-8.907-7.223-16.13-16.129-16.13zM64.109 83.918c-.015-.195-.007-.168.02-.047zm0 0" fill="url(#c)"/><path d="M29.516 98.727c.89-1.946 1.406-4.165 2.144-6.157.711-1.906 1.817-4.61 3.7-5.57-.227-.27-3.938-.39-4.93-.492l-3.2-.453-6.164-1.27c-1.199-.289-5.187-1.703-6.054-2.101-2.032-.938-3.383-3.48-4.969-3.22-1.016.165-2.012.513-2.633 1.536-.515.836-.691 2.27-1.047 3.23-.414 1.118-1.129 2.16-1.754 3.223-1.152 1.95-3.222 3.715-4.113 5.617-.18.39-.34.828-.488 1.285v21.735l3.347.722c8.993 2.403 11.188 2.606 20.008 1.594l.828-.11c.672-1.405 1.196-6.187 1.633-7.667.34-1.137.809-2.04.988-3.2.168-1.1-.015-2.148-.113-3.152-.242-2.504 1.828-3.398 2.82-5.55zm0 0" fill="url(#d)"/></svg>
